X: 1071
T: Amazing Adventures Of Dr Moriarty, The
R: reel
M: 4/4
K: Dmajor
FABF A2FA|dBAF EDB,D|FABF A2FA|1 ABde fafd:|2 ABde fafe||
|:dBAF defa|b2ba bafd|1 B3A BdBA|FGAB FAEA:|2 B3A B2de|faef d2AB:|dBAF D3E||

